X:1
T:All in Together
Z:robin.beech@mcgill.ca
R:slip jig
M:9/8
L:1/8
K:D
FAA FAd AFD | FAA FAd B2A | FAA FAd AFD | EDB, DFA B2A |
FAA FAd AFD | FAA FAD B2A | FAA FAd AFD | EDB, DFA B2A ::
f3 faf edB | Aff fef gfe | f3 faf efB | AFE DFA B2A |
f3 faf efB | Aff fed gfe | f3 faf edc | AFE DFAB2A :|
